src/assets/icons/map.svg

<svg width="14" height="14" viewBox="0 0 14 14" fill="none" xmlns="http://www.w3.org/2000/svg">
<g id="map">
<g clip-path="url(#clip0_156_4535)">
<path id="Vector" d="M13.3232 0.669441C12.9256 0.407041 12.428 0.363042 11.9928 0.549442L9.1344 1.77504L5.34 0.149442C5.0416 0.0222417 4.6952 0.0214417 4.3928 0.149442L0.9 1.64624C0.3528 1.88064 0 2.43024 0 3.04704V12.0486C0 12.571 0.252799 13.0502 0.676799 13.3294C1.0752 13.5918 1.5712 13.635 2.0072 13.4494L4.8664 12.2238L8.66 13.8494C8.8104 13.9134 8.972 13.9462 9.1336 13.9462C9.2944 13.9462 9.456 13.9134 9.6072 13.8494L13.1 12.3526C13.6472 12.1182 14 11.5686 14 10.9518V1.95024C14 1.42704 13.7464 0.948641 13.3232 0.669441ZM5.4664 1.50944L8.5336 2.82384V12.4886L5.4664 11.1742V1.50944ZM1.5336 12.3462C1.4664 12.3734 1.4 12.3678 1.3368 12.3278C1.252 12.271 1.2 12.167 1.2 12.0486V3.04704C1.2 2.91344 1.2696 2.79424 1.3736 2.74944L4.2664 1.50944V11.1742L1.5336 12.3462ZM12.8 10.9518C12.8 11.0854 12.7304 11.2046 12.6264 11.2494L9.7336 12.4894V2.82384L12.4664 1.65264C12.532 1.62384 12.5992 1.63024 12.6632 1.67104C12.748 1.72784 12.8 1.83184 12.8 1.95024V10.9518Z" fill="black"/>
</g>
</g>
<defs>
<clipPath id="clip0_156_4535">
<rect width="14" height="14" fill="white"/>
</clipPath>
</defs>
</svg>

<svg xmlns="http://www.w3.org/2000/svg" fill="none" viewBox="0 0 14 14"><g clip-path="url(#a)"><path fill="#000" d="M13.323.67a1.4 1.4 0 0 0-1.33-.12L9.134 1.774 5.34.149a1.22 1.22 0 0 0-.947 0L.9 1.646A1.51 1.51 0 0 0 0 3.047v9.002c0 .522.253 1.001.677 1.28.398.263.894.306 1.33.12l2.86-1.225 3.793 1.625a1.2 1.2 0 0 0 .947 0l3.493-1.496c.547-.235.9-.784.9-1.401V1.95c0-.523-.254-1.001-.677-1.28m-7.857.84 3.068 1.314v9.665l-3.068-1.315zM1.534 12.345a.2.2 0 0 1-.197-.018.33.33 0 0 1-.137-.28V3.048c0-.134.07-.253.174-.298l2.892-1.24v9.665zM12.8 10.952c0 .133-.07.253-.174.297l-2.892 1.24V2.824l2.732-1.171a.2.2 0 0 1 .197.018.33.33 0 0 1 .137.28z"/></g><defs><clipPath id="a"><path fill="#fff" d="M0 0h14v14H0z"/></clipPath></defs></svg>
